X: 1
T: Glory Halleluja
C: traditional song
M: 4/4
L: 1/8
K: C
 |: "C"G5 F2 | E2 G2 c2 d2 | e8 | "C7" c8 | "F" A6 B2 | c2 B2 c2 A2 | "C" G8 | E8]
"C"G5 F2 | E2 G2 c2 d2 | "E7" e4 d4 | "Am7" c4 (3(c2 c2) c2 | "Dm7" d4 d4 | "G7" B4 B4 | (c8 | c4) z4:|
